X:33
T:Danse de l'ours
I:last changed 14/2/2016
F:http://www.campin.me.uk/Music/Edinbal.abc
M:2/4
L:1/8
K:AMin
eA A>B|eA A>B|cc    Bc   |dd cd   |\
eA eA |eA A>B|cc    B/A/G|A4     :|
Ac Ac |BG G2 |Ac    Ac   |d3  c/d/|\
ee dd |cc B2 |A/B/c BG   |A4     :|

